images/decorative/skills/ts-icon.svg

<svg width="512" height="512" fill="none" xmlns="http://www.w3.org/2000/svg"><g clip-path="url(#a)"><path d="M40 0h432c22.091 0 40 17.909 40 40v432c0 22.091-17.909 40-40 40H40c-22.091 0-40-17.909-40-40V40C0 17.909 17.909 0 40 0Z" fill="#3178C6"/><path d="M301.036 400.95v55.24c8.984 4.604 19.61 8.056 31.876 10.358 12.266 2.302 25.194 3.452 38.786 3.452 13.244 0 25.828-1.266 37.748-3.798 11.92-2.532 22.374-6.704 31.356-12.514 8.984-5.812 16.096-13.408 21.338-22.788 5.24-9.378 7.86-20.972 7.86-34.782 0-10.012-1.498-18.788-4.492-26.326-2.994-7.538-7.314-14.242-12.958-20.11-5.642-5.87-12.41-11.134-20.298-15.796-7.89-4.66-16.788-9.062-26.694-13.204-7.256-2.994-13.762-5.898-19.522-8.718-5.758-2.82-10.654-5.696-14.684-8.632-4.032-2.934-7.142-6.042-9.33-9.322-2.188-3.28-3.282-6.99-3.282-11.134 0-3.798.978-7.22 2.936-10.27s4.724-5.668 8.294-7.854c3.57-2.188 7.946-3.884 13.13-5.094 5.182-1.208 10.942-1.812 17.276-1.812 4.608 0 9.474.346 14.598 1.036 5.126.69 10.28 1.754 15.464 3.194a107.338 107.338 0 0 1 15.116 5.438c4.894 2.186 9.416 4.718 13.562 7.594v-51.614c-8.408-3.222-17.594-5.61-27.556-7.164-9.962-1.554-21.394-2.33-34.294-2.33-13.13 0-25.568 1.41-37.316 4.23-11.748 2.818-22.086 7.22-31.012 13.204-8.926 5.986-15.98 13.61-21.164 22.874-5.182 9.264-7.774 20.34-7.774 33.23 0 16.456 4.75 30.496 14.254 42.12 9.502 11.622 23.926 21.462 43.276 29.518 7.602 3.108 14.686 6.156 21.25 9.15 6.566 2.992 12.238 6.098 17.018 9.32 4.78 3.222 8.552 6.732 11.316 10.53 2.764 3.798 4.146 8.114 4.146 12.948 0 3.566-.864 6.876-2.592 9.926-1.726 3.048-4.348 5.696-7.86 7.94-3.512 2.244-7.89 3.998-13.13 5.264-5.24 1.266-11.374 1.9-18.4 1.9-11.978 0-23.84-2.1-35.588-6.302-11.75-4.2-22.634-10.5-32.654-18.902Zm-92.072-137.466H280V218H82v45.484h70.689V466h56.275V263.484Z" fill="#fff"/></g><defs><clipPath id="a"><path fill="#fff" d="M0 0h512v512H0z"/></clipPath></defs></svg>

<svg width="512" height="512" viewBox="0 0 512 512" fill="none" xmlns="http://www.w3.org/2000/svg">
<g clip-path="url(#clip0_334_869)">
<path d="M40 0H472C494.091 0 512 17.9086 512 40V472C512 494.091 494.091 512 472 512H40C17.9086 512 0 494.091 0 472V40C0 17.9086 17.9086 0 40 0Z" fill="#3178C6"/>
<path d="M301.036 400.95V456.19C310.02 460.794 320.646 464.246 332.912 466.548C345.178 468.85 358.106 470 371.698 470C384.942 470 397.526 468.734 409.446 466.202C421.366 463.67 431.82 459.498 440.802 453.688C449.786 447.876 456.898 440.28 462.14 430.9C467.38 421.522 470 409.928 470 396.118C470 386.106 468.502 377.33 465.508 369.792C462.514 362.254 458.194 355.55 452.55 349.682C446.908 343.812 440.14 338.548 432.252 333.886C424.362 329.226 415.464 324.824 405.558 320.682C398.302 317.688 391.796 314.784 386.036 311.964C380.278 309.144 375.382 306.268 371.352 303.332C367.32 300.398 364.21 297.29 362.022 294.01C359.834 290.73 358.74 287.02 358.74 282.876C358.74 279.078 359.718 275.656 361.676 272.606C363.634 269.556 366.4 266.938 369.97 264.752C373.54 262.564 377.916 260.868 383.1 259.658C388.282 258.45 394.042 257.846 400.376 257.846C404.984 257.846 409.85 258.192 414.974 258.882C420.1 259.572 425.254 260.636 430.438 262.076C435.62 263.514 440.658 265.326 445.554 267.514C450.448 269.7 454.97 272.232 459.116 275.108V223.494C450.708 220.272 441.522 217.884 431.56 216.33C421.598 214.776 410.166 214 397.266 214C384.136 214 371.698 215.41 359.95 218.23C348.202 221.048 337.864 225.45 328.938 231.434C320.012 237.42 312.958 245.044 307.774 254.308C302.592 263.572 300 274.648 300 287.538C300 303.994 304.75 318.034 314.254 329.658C323.756 341.28 338.18 351.12 357.53 359.176C365.132 362.284 372.216 365.332 378.78 368.326C385.346 371.318 391.018 374.424 395.798 377.646C400.578 380.868 404.35 384.378 407.114 388.176C409.878 391.974 411.26 396.29 411.26 401.124C411.26 404.69 410.396 408 408.668 411.05C406.942 414.098 404.32 416.746 400.808 418.99C397.296 421.234 392.918 422.988 387.678 424.254C382.438 425.52 376.304 426.154 369.278 426.154C357.3 426.154 345.438 424.054 333.69 419.852C321.94 415.652 311.056 409.352 301.036 400.95ZM208.964 263.484H280V218H82V263.484H152.689V466H208.964V263.484Z" fill="white"/>
</g>
<defs>
<clipPath id="clip0_334_869">
<rect width="512" height="512" fill="white"/>
</clipPath>
</defs>
</svg>
